html/app/assets/img/ui/icon-notincluded.svg

<svg fill="none" height="40" viewBox="0 0 40 40" width="40" xmlns="http://www.w3.org/2000/svg"><path clip-rule="evenodd" d="m20 3.63636c-9.0374 0-16.36364 7.32624-16.36364 16.36364s7.32624 16.3636 16.36364 16.3636 16.3636-7.3262 16.3636-16.3636-7.3262-16.36364-16.3636-16.36364zm-20 16.36364c0-11.04569 8.95431-20 20-20 11.0457 0 20 8.95431 20 20 0 11.0457-8.9543 20-20 20-11.04569 0-20-8.9543-20-20zm13.2598-6.7402c.7101-.71 1.8613-.71 2.5713 0l4.1689 4.1689 4.1689-4.1689c.71-.71 1.8613-.71 2.5713 0 .71.7101.71 1.8613 0 2.5713l-4.1689 4.1689 4.1689 4.1689c.71.71.71 1.8613 0 2.5713s-1.8613.71-2.5713 0l-4.1689-4.1689-4.1689 4.1689c-.71.71-1.8612.71-2.5713 0-.71-.71-.71-1.8613 0-2.5713l4.1689-4.1689-4.1689-4.1689c-.71-.71-.71-1.8612 0-2.5713z" fill="#f6a7b7" fill-rule="evenodd"/></svg>

<svg width="40" height="40" viewBox="0 0 40 40" fill="none" xmlns="http://www.w3.org/2000/svg">
<path fill-rule="evenodd" clip-rule="evenodd" d="M20 3.63636C10.9626 3.63636 3.63636 10.9626 3.63636 20C3.63636 29.0374 10.9626 36.3636 20 36.3636C29.0374 36.3636 36.3636 29.0374 36.3636 20C36.3636 10.9626 29.0374 3.63636 20 3.63636ZM0 20C0 8.95431 8.95431 0 20 0C31.0457 0 40 8.95431 40 20C40 31.0457 31.0457 40 20 40C8.95431 40 0 31.0457 0 20ZM13.2598 13.2598C13.9699 12.5498 15.1211 12.5498 15.8311 13.2598L20 17.4287L24.1689 13.2598C24.8789 12.5498 26.0302 12.5498 26.7402 13.2598C27.4502 13.9699 27.4502 15.1211 26.7402 15.8311L22.5713 20L26.7402 24.1689C27.4502 24.8789 27.4502 26.0302 26.7402 26.7402C26.0302 27.4502 24.8789 27.4502 24.1689 26.7402L20 22.5713L15.8311 26.7402C15.1211 27.4502 13.9699 27.4502 13.2598 26.7402C12.5498 26.0302 12.5498 24.8789 13.2598 24.1689L17.4287 20L13.2598 15.8311C12.5498 15.1211 12.5498 13.9699 13.2598 13.2598Z" fill="#F6A7B7"/>
</svg>
